svgs/solid/landmark-flag.svg

<svg xmlns="http://www.w3.org/2000/svg" viewBox="0 0 512 512"><!--! Font Awesome Free 6.6.0 by @fontawesome - https://fontawesome.com License - https://fontawesome.com/license/free (Icons: CC BY 4.0, Fonts: SIL OFL 1.1, Code: MIT License) Copyright 2024 Fonticons, Inc. --><path d="M272 0l80 0c8.8 0 16 7.2 16 16l0 64c0 8.8-7.2 16-16 16l-80 0 0 32 192 0c17.7 0 32 14.3 32 32s-14.3 32-32 32L48 192c-17.7 0-32-14.3-32-32s14.3-32 32-32l192 0 0-112c0-8.8 7.2-16 16-16l16 0zM64 224l64 0 0 192 40 0 0-192 64 0 0 192 48 0 0-192 64 0 0 192 40 0 0-192 64 0 0 196.3c.6 .3 1.2 .7 1.8 1.1l48 32c11.7 7.8 17 22.4 12.9 35.9S494.1 512 480 512L32 512c-14.1 0-26.5-9.2-30.6-22.7s1.1-28.1 12.9-35.9l48-32c.6-.4 1.2-.7 1.8-1.1L64 224z"/></svg>

<svg xmlns="http://www.w3.org/2000/svg" viewBox="0 0 512 512"><!--! Font Awesome Free 6.5.2 by @fontawesome - https://fontawesome.com License - https://fontawesome.com/license/free (Icons: CC BY 4.0, Fonts: SIL OFL 1.1, Code: MIT License) Copyright 2024 Fonticons, Inc. --><path d="M272 0h80c8.8 0 16 7.2 16 16V80c0 8.8-7.2 16-16 16H272v32H464c17.7 0 32 14.3 32 32s-14.3 32-32 32H48c-17.7 0-32-14.3-32-32s14.3-32 32-32H240V16c0-8.8 7.2-16 16-16h16zM64 224h64V416h40V224h64V416h48V224h64V416h40V224h64V420.3c.6 .3 1.2 .7 1.8 1.1l48 32c11.7 7.8 17 22.4 12.9 35.9S494.1 512 480 512H32c-14.1 0-26.5-9.2-30.6-22.7s1.1-28.1 12.9-35.9l48-32c.6-.4 1.2-.7 1.8-1.1V224z"/></svg>
